icons/rust.svg

<svg xmlns="http://www.w3.org/2000/svg" viewBox="0 0 32 32"><path d="M30,12l-4-2V6H22L20,2,16,4,12,2,10,6H6v4L2,12l2,4L2,20l4,2v4h4l2,4,4-2,4,2,2-4h4V22l4-2-2-4ZM6,16a9.92443,9.92443,0,0,1,.84222-4H10v8H6.84222A9.92443,9.92443,0,0,1,6,16ZM16,26a9.98288,9.98288,0,0,1-7.97845-4H16V20H14V18h4c.819.819.297,2.308,1.179,3.37a1.88506,1.88506,0,0,0,1.46.63h3.33947A9.98288,9.98288,0,0,1,16,26ZM14,14V12h4a1,1,0,0,1,0,2Zm11.15778,6H24a2.006,2.006,0,0,1-2-2,2,2,0,0,0-2-2,3,3,0,0,0,3.00031-2.99969q0-.08067-.00434-.16132A3.115,3.115,0,0,0,19.83,10H8.02155A9.9858,9.9858,0,0,1,25.15778,20Z" style="fill:#ff7043"/></svg>

<svg xmlns="http://www.w3.org/2000/svg" viewBox="0 0 32 32"><path fill="#ff7043" d="m30 12-4-2V6h-4l-2-4-4 2-4-2-2 4H6v4l-4 2 2 4-2 4 4 2v4h4l2 4 4-2 4 2 2-4h4v-4l4-2-2-4ZM6 16a9.924 9.924 0 0 1 .842-4H10v8H6.842A9.924 9.924 0 0 1 6 16Zm10 10a9.983 9.983 0 0 1-7.978-4H16v-2h-2v-2h4c.819.819.297 2.308 1.179 3.37a1.885 1.885 0 0 0 1.46.63h3.34A9.983 9.983 0 0 1 16 26Zm-2-12v-2h4a1 1 0 0 1 0 2Zm11.158 6H24a2.006 2.006 0 0 1-2-2 2 2 0 0 0-2-2 3 3 0 0 0 3-3q0-.08-.004-.161A3.115 3.115 0 0 0 19.83 10H8.022a9.986 9.986 0 0 1 17.136 10Z"/></svg>
